X: 34022
T: Reel D'Issoudun
R: reel
M: 4/4
K: Amajor
efge a2gf|eagf edcd|efge a2 gf|eagf edcA|BAGB A4:|
c2 c2 B4|BABc dcBA|c2 c2 B3 c|BAGB A4|EAAB c2 c2|
B4 BABc|dcBA c2 c2|B3 c BAGB|A4 EAAB|
c2 c2 B4|BABc dcBA|c2 c2 B3 c|BAGB A4||

